X:136
T:Bonny Kate of Aberdeen. VWMLa.136
%%VWML:Anon2-3049-p78-0
F:http://www.vwml.org/record/Anon2/3049/p78
S:Anon. MS, late 18thC, Vaughan Williams Mem. Library
O:England;Yorkshire
Z:vmp/efdss.Simon Wilson. Reviewed PJH 2008.
M:C|
L:1/8
Q:1/2=90
K:D
.A(FED) .A(FED)|B2Bc d2cB|\
.A(FED) .A(FED)|EFGA G2(FE)|\
.A(FED) .A(FED)|fgaf {g}e2dc|\
dfdA BdBG|AFGE D4:|
|:.e(cBA) .e(cBA)|d2cB {d}c2BA|\
B2Bd c2ce|fdaf e2(fg)|\
(af)(ed) .e(cBA)|BcdF E2DC|\
DfdA BdBG|AFGE D4:|
